!!!OTL: ES IST NICHTS LUSTGER AUF DER WELT
!!!ARE: Europa, Mitteleuropa, Deutschland
!!!SCT: F0611
!!!YEM: Copyright 1995, estate of Helmut Schaffrath.
**kern
*ICvox
*Ivox
*M6/8
*k[b-]
*F:
{8cc
=1
4a
8a
8a
8b-
8cc
=2
4f
8f
4f}
{8a
=3
4g
8g
8g
8a
8b-
=4
4.b-
8a
8r}
{8a
=5
4g
8cc
4cc
8cc
=6
4bn
8dd
4ff}
{8ff
=7
4ee
8cc
8dd
8cc
8bn
=8
4.cc
4r}
{8ee
=9
4ff
8cc
4a
8f
=10
4dd
8dd
4dd}
{8dd
=11
4cc
8cc
8cc
8b-
8a
=12
4.a
8g
8r}
{8g
=13
4b-
8b-
4a
8f
=14
8ff
8ee
8dd
8cc
8r}
{8b-
=15
4a
8a
4cc
8cc
=16
8a
4r}
{4.dd
=17
4cc
8a
4cc
8cc
=18
8f
2r}
==
!!!AGN: Soldaten - Lied
!!!ONB: ESAC (Essen Associative Code) Database: FINK
!!!AMT: compound duple
!!!AIN: vox
!!!EED: Helmut Schaffrath
!!!EEV: 1.0
*-
